icons/mintlify.svg

<!--
  - The MIT License (MIT)
  -
  - Copyright (c) 2015-2024 Elior "Mallowigi" Boukhobza
  -
  - Permission is hereby granted, free of charge, to any person obtaining a copy
  - of this software and associated documentation files (the "Software"), to deal
  - in the Software without restriction, including without limitation the rights
  - to use, copy, modify, merge, publish, distribute, sublicense, and/or sell
  - copies of the Software, and to permit persons to whom the Software is
  - furnished to do so, subject to the following conditions:
  -
  - The above copyright notice and this permission notice shall be included in all
  - copies or substantial portions of the Software.
  -
  - THE SOFTWARE IS PROVIDED "AS IS", WITHOUT WARRANTY OF ANY KIND, EXPRESS OR
  - IMPLIED, INCLUDING BUT NOT LIMITED TO THE WARRANTIES OF MERCHANTABILITY,
  - FITNESS FOR A PARTICULAR PURPOSE AND NONINFRINGEMENT. IN NO EVENT SHALL THE
  - AUTHORS OR COPYRIGHT HOLDERS BE LIABLE FOR ANY CLAIM, DAMAGES OR OTHER
  - LIABILITY, WHETHER IN AN ACTION OF CONTRACT, TORT OR OTHERWISE, ARISING FROM,
  - OUT OF OR IN CONNECTION WITH THE SOFTWARE OR THE USE OR OTHER DEALINGS IN THE
  - SOFTWARE.
  -
  -->

<svg width="16px" height="16px" viewBox="-20 -20 540 540" fill="none" xmlns="http://www.w3.org/2000/svg" >
    <g fill="#18E299" data-iconColor="Mintlify">
        <path d="M130.833 179.492C131.161 134.734 148.911 91.8646 180.318 59.9746H180.26L59.0063 181.228H59.0641C58.6128 181.584 58.1872 181.97 57.7908 182.386C28.3021 211.836 10.4234 250.934 7.43594 292.503C4.4485 334.071 16.5527 375.324 41.5272 408.688L163.996 286.219L165.27 285.003C142.444 254.606 130.334 217.502 130.833 179.492V179.492Z"
        />
        <path d="M425.257 304.971C402.05 327.714 372.919 343.479 341.185 350.469C309.452 357.458 276.393 355.39 245.778 344.501C229.455 338.707 214.114 330.451 200.286 320.019L199.013 321.292L76.5439 443.704C109.922 468.616 151.151 480.682 192.694 477.695C234.237 474.709 273.316 456.87 302.788 427.44L304.003 426.225L425.257 304.971Z"
        />
        <path d="M477.232 181.228V16.0001C477.232 11.5818 473.65 8.00009 469.232 8.00009H304.004C281.253 7.97729 258.722 12.4497 237.705 21.1605C216.688 29.8713 197.599 42.6487 181.534 58.7589L180.319 59.9743C159.144 81.4707 143.995 108.157 136.39 137.357C150.157 133.792 164.305 131.907 178.525 131.743C216.536 131.295 253.63 143.422 284.036 166.238C311.363 186.617 332.045 214.63 343.476 246.746C355.126 279.571 356.658 315.137 347.875 348.842C377.08 341.25 403.769 326.098 425.257 304.913L426.473 303.755C442.59 287.684 455.371 268.586 464.082 247.558C472.793 226.531 477.262 203.989 477.232 181.228Z"
        />
    </g>
</svg>

<svg xmlns="http://www.w3.org/2000/svg" fill="none" viewBox="-20 -20 540 540"><g fill="#18e299" data-iconColor="Mintlify"><path d="M130.833 179.492a172.13 172.13 0 0 1 49.485-119.517h-.058L59.006 181.228h.058q-.678.534-1.273 1.158a173.17 173.17 0 0 0-16.264 226.302l122.469-122.469 1.274-1.216a171.95 171.95 0 0 1-34.437-105.511m294.424 125.479a173.41 173.41 0 0 1-179.479 39.53 169.9 169.9 0 0 1-45.492-24.482l-1.273 1.273-122.47 122.412a173.4 173.4 0 0 0 226.244-16.264l1.216-1.215z"/><path d="M477.232 181.228V16a8 8 0 0 0-8-8H304.004a172.7 172.7 0 0 0-122.47 50.759l-1.215 1.215a172.07 172.07 0 0 0-43.929 77.383 176.2 176.2 0 0 1 42.135-5.614 172.4 172.4 0 0 1 105.511 34.495 172.65 172.65 0 0 1 59.44 80.508 174.04 174.04 0 0 1 4.399 102.096 171.8 171.8 0 0 0 77.382-43.929l1.216-1.158a172.7 172.7 0 0 0 50.759-122.527"/></g></svg>
